tools/download-figma-icons/icons/outlined-medium/search.svg

<svg width="24" height="24" viewBox="0 0 24 24" fill="none" xmlns="http://www.w3.org/2000/svg">
<path fill-rule="evenodd" clip-rule="evenodd" d="M5.25 10.1025C5.25 7.01325 7.76325 4.5 10.8517 4.5C13.941 4.5 16.4535 7.01325 16.4535 10.1025C16.4535 13.191 13.941 15.7042 10.8517 15.7042C7.76325 15.7042 5.25 13.191 5.25 10.1025ZM20.7795 18.978L16.368 14.5665C17.358 13.3455 17.9535 11.793 17.9535 10.1025C17.9535 6.186 14.7675 3 10.8517 3C6.936 3 3.75 6.186 3.75 10.1025C3.75 14.0183 6.936 17.2042 10.8517 17.2042C12.5378 17.2042 14.0865 16.611 15.306 15.6255L19.719 20.0385C19.8652 20.1847 20.0573 20.2582 20.2493 20.2582C20.4412 20.2582 20.6332 20.1847 20.7795 20.0385C21.0728 19.7453 21.0728 19.2712 20.7795 18.978Z" fill="black"/>
</svg>

<svg width="24" height="24" viewBox="0 0 24 24" fill="none" xmlns="http://www.w3.org/2000/svg"><path fill-rule="evenodd" clip-rule="evenodd" d="M5.25 10.102A5.609 5.609 0 0 1 10.852 4.5a5.608 5.608 0 0 1 5.601 5.602 5.608 5.608 0 0 1-5.601 5.602 5.608 5.608 0 0 1-5.602-5.602Zm15.53 8.876-4.412-4.412a7.065 7.065 0 0 0 1.585-4.464C17.953 6.186 14.768 3 10.852 3S3.75 6.186 3.75 10.102a7.11 7.11 0 0 0 7.102 7.102 7.064 7.064 0 0 0 4.454-1.579l4.413 4.413a.748.748 0 0 0 1.06 0 .75.75 0 0 0 0-1.06Z" fill="currentColor"/></svg>
